X:82
T: Der feine Reiter
N: A0434
O: Europa, Mitteleuropa, Deutschland
N: Sam Scheidt, Orgeltabulatur. Hamburg 1624 fol. 183.
R: Romanze, Ballade, Lied, Jaegerlied
M: 4/4
L: 1/8
K: C
E3FG2A2 | G4G2
F2 | E4D4 | C8 |
E3FG2A2 | G4G2
F2 | E4D4 | C8 |
B3cd2e2 | d4d2
c2 | B4A4 | G6G2 |
B3cd2e2 | d4d2
c2 | B4A4 | G6G2 |
c4A4 | G6G2 | c4A4 | G6
G2 | c4c2d2 | c4B4 | c4A4 | G8 |
E3FG2A2 | G3GG2
F2 | E2E2D2D2 | C8

@@@ Tune index: 395
